source/img/icon-phone-square.svg

<svg fill="none" height="58" viewBox="0 0 58 58" width="58" xmlns="http://www.w3.org/2000/svg"><path d="m0 0h58v58h-58z" fill="#e6e6e6"/><path d="m24.6 27.8c1.4 2.8 3.8 5.1 6.6 6.6l2.2-2.2c.3-.3.7-.4 1-.2 1.1.4 2.3.6 3.6.6.6 0 1 .4 1 1v3.4c0 .6-.4 1-1 1-9.4 0-17-7.6-17-17 0-.6.4-1 1-1h3.5c.6 0 1 .4 1 1 0 1.2.2 2.4.6 3.6.1.3 0 .7-.2 1z" fill="#010101"/></svg>

<svg width="58" height="58" viewBox="0 0 58 58" fill="none" xmlns="http://www.w3.org/2000/svg">
<rect width="58" height="58" fill="#E6E6E6"/>
<path d="M24.6 27.8C26 30.6 28.4 32.9 31.2 34.4L33.4 32.2C33.7 31.9 34.1 31.8 34.4 32C35.5 32.4 36.7 32.6 38 32.6C38.6 32.6 39 33 39 33.6V37C39 37.6 38.6 38 38 38C28.6 38 21 30.4 21 21C21 20.4 21.4 20 22 20H25.5C26.1 20 26.5 20.4 26.5 21C26.5 22.2 26.7 23.4 27.1 24.6C27.2 24.9 27.1 25.3 26.9 25.6L24.6 27.8Z" fill="#010101"/>
</svg>
